packages/icons/raw/imported/ShopBasket.svg

<svg width="32" height="32" viewBox="0 0 32 32" fill="none" xmlns="http://www.w3.org/2000/svg">
<path d="M19.1802 25.5V25V25.5ZM12.8198 25.5V26V25.5ZM24.536 13.1265C24.5634 12.8517 24.3628 12.6067 24.088 12.5794C23.8132 12.552 23.5683 12.7526 23.5409 13.0274L24.536 13.1265ZM23.1605 21.8962L23.6581 21.9458L23.1605 21.8962ZM8.45908 13.0274C8.43172 12.7526 8.18679 12.5521 7.91201 12.5794C7.63722 12.6068 7.43664 12.8517 7.46399 13.1265L8.45908 13.0274ZM8.83947 21.8962L8.34193 21.9458L8.83947 21.8962ZM16.5 18.1923C16.5 17.9162 16.2761 17.6923 16 17.6923C15.7239 17.6923 15.5 17.9162 15.5 18.1923H16.5ZM15.5 21.1154C15.5 21.3915 15.7239 21.6154 16 21.6154C16.2761 21.6154 16.5 21.3915 16.5 21.1154H15.5ZM20.1538 18.1923C20.1538 17.9162 19.93 17.6923 19.6538 17.6923C19.3777 17.6923 19.1538 17.9162 19.1538 18.1923H20.1538ZM19.1538 21.1154C19.1538 21.3915 19.3777 21.6154 19.6538 21.6154C19.93 21.6154 20.1538 21.3915 20.1538 21.1154H19.1538ZM12.8462 18.1923C12.8462 17.9162 12.6223 17.6923 12.3462 17.6923C12.07 17.6923 11.8462 17.9162 11.8462 18.1923H12.8462ZM11.8462 21.1154C11.8462 21.3915 12.07 21.6154 12.3462 21.6154C12.6223 21.6154 12.8462 21.3915 12.8462 21.1154H11.8462ZM14.2759 6.67556C14.3728 6.417 14.2418 6.12879 13.9833 6.03183C13.7247 5.93488 13.4365 6.06588 13.3396 6.32444L14.2759 6.67556ZM11.1473 12.1706C11.0503 12.4292 11.1813 12.7174 11.4399 12.8143C11.6984 12.9113 11.9866 12.7803 12.0836 12.5217L11.1473 12.1706ZM6.5 12.5769C6.22386 12.5769 6 12.8008 6 13.0769C6 13.3531 6.22386 13.5769 6.5 13.5769V12.5769ZM25.5 13.5769C25.7761 13.5769 26 13.3531 26 13.0769C26 12.8008 25.7761 12.5769 25.5 12.5769V13.5769ZM18.6605 6.32445C18.5635 6.06589 18.2753 5.93488 18.0167 6.03184C17.7582 6.1288 17.6272 6.41701 17.7241 6.67557L18.6605 6.32445ZM19.9165 12.5217C20.0134 12.7803 20.3016 12.9113 20.5602 12.8143C20.8187 12.7174 20.9497 12.4292 20.8528 12.1706L19.9165 12.5217ZM19.1802 25H12.8198V26H19.1802V25ZM23.5409 13.0274L22.663 21.8467L23.6581 21.9458L24.536 13.1265L23.5409 13.0274ZM7.46399 13.1265L8.34193 21.9458L9.33701 21.8467L8.45908 13.0274L7.46399 13.1265ZM12.8198 25C11.0211 25 9.51519 23.6366 9.33701 21.8467L8.34193 21.9458C8.57102 24.2471 10.5072 26 12.8198 26V25ZM19.1802 26C21.4928 26 23.429 24.247 23.6581 21.9458L22.663 21.8467C22.4848 23.6366 20.9789 25 19.1802 25V26ZM15.5 18.1923V21.1154H16.5V18.1923H15.5ZM19.1538 18.1923V21.1154H20.1538V18.1923H19.1538ZM11.8462 18.1923V21.1154H12.8462V18.1923H11.8462ZM13.3396 6.32444L11.1473 12.1706L12.0836 12.5217L14.2759 6.67556L13.3396 6.32444ZM6.5 13.5769H25.5V12.5769H6.5V13.5769ZM17.7241 6.67557L19.9165 12.5217L20.8528 12.1706L18.6605 6.32445L17.7241 6.67557Z" fill="black"/>
</svg>

<svg width="32" height="32" fill="none" xmlns="http://www.w3.org/2000/svg"><path d="M19.18 25.5V25v.5Zm-6.36 0v.5-.5Zm11.716-12.373a.5.5 0 1 0-.995-.1l.995.1Zm-1.376 8.77.498.049-.498-.05Zm-14.7-8.87a.5.5 0 0 0-.996.1l.995-.1Zm.38 8.87-.498.049.497-.05Zm7.66-3.705a.5.5 0 0 0-1 0h1Zm-1 2.923a.5.5 0 0 0 1 0h-1Zm4.654-2.923a.5.5 0 1 0-1 0h1Zm-1 2.923a.5.5 0 0 0 1 0h-1Zm-6.308-2.923a.5.5 0 0 0-1 0h1Zm-1 2.923a.5.5 0 1 0 1 0h-1Zm2.43-14.44a.5.5 0 0 0-.936-.35l.936.35Zm-3.129 5.496a.5.5 0 1 0 .937.35l-.937-.35Zm-4.647.406a.5.5 0 0 0 0 1v-1Zm19 1a.5.5 0 1 0 0-1v1Zm-6.84-7.253a.5.5 0 0 0-.936.352l.936-.352Zm1.256 6.198a.5.5 0 1 0 .937-.351l-.937.35ZM19.18 25h-6.36v1h6.36v-1Zm4.36-11.973-.877 8.82.995.099.878-8.82-.995-.099Zm-16.076.1.878 8.819.995-.1-.878-8.819-.995.1ZM12.82 25a3.5 3.5 0 0 1-3.483-3.153l-.995.099A4.5 4.5 0 0 0 12.82 26v-1Zm6.36 1a4.5 4.5 0 0 0 4.478-4.054l-.995-.1A3.5 3.5 0 0 1 19.18 25v1Zm-3.68-7.808v2.923h1v-2.923h-1Zm3.654 0v2.923h1v-2.923h-1Zm-7.308 0v2.923h1v-2.923h-1ZM13.34 6.324l-2.193 5.847.937.35 2.192-5.845-.936-.352ZM6.5 13.577h19v-1h-19v1Zm11.224-6.901 2.192 5.846.937-.351-2.193-5.847-.936.352Z" fill="#000"/></svg>
